X:1
T:Contemplation Funk, 88.88.66
T:Contemplation Funk, 88.88.66
T:From Choral Music, by Joseph Funk, 1816
T:Public Domain Courtesy of the Cyber Hymnal™
C:From Choral Music, by Joseph Funk, 1816
Z:Public Domain
Z:Courtesy of the Cyber Hymnal™
%%score ( 1 2 ) ( 3 4 )
L:1/8
Q:1/4=110
M:2/4
K:C
V:1 treble 
V:2 treble 
V:3 bass 
V:4 bass 
V:1
|: [Gc]2 | [Gc]2 [Gd]2 | [Ge]2 (fe) | [Gd]3 d | !fermata![Ec]2 [Ge]2 | [Gd]2 (ed) | [Gd]2 (cB) | %7
 A3 G | !fermata![EG]2 :| G2 | [Gc]2 (dc) | [Ec]3 [Ec] | [Gd]2 (ed) | !fermata![Gd]2 [Bd]2 | %14
 [ce]2 [Bd]2 | [ce]2 ([Af][ce]) | [Bd]3 [Fc] | !fermata![Ec]2 |] %18
V:2
|: x2 | x4 | x2 A2 | x3 (G/F/) | x4 | x2 G2 | x2 G2 | A3 (G/F/) | x2 :| G2 | x2 G2 | x4 | x2 G2 | %13
 x4 | x4 | x4 | x4 | x2 |] %18
V:3
|: [C,CE]2 | [C,CE]2 [G,D]2 | [C,C]2 (CE) | [G,D]3 [G,,E] | !fermata![C,E]2 [C,C]2 | %5
 [G,D]2 [G,C]2 | [G,B,]2 ([C,C][E,E]) | [D,D]3 [G,D] | !fermata![C,C]2 :| [G,D]2 | [E,E]2 (DC) | %11
 [C,E]3 [C,E] | [G,D]2 (CD) | !fermata![G,D]2 [G,D]2 | [CE]2 [G,D]2 | [C,E]2 (FE) | [G,D]3 [G,E] | %17
 !fermata![C,E]2 |] %18
V:4
|: x2 | x4 | x2 F,2 | x4 | x4 | x4 | x4 | x4 | x2 :| x2 | x2 D,2 | x4 | x2 G,2 | x4 | x4 | x2 F,2 | %16
 x4 | x2 |] %18

